!!!!SEGMENT: pl-cz--i-155--006-003_anonim--partia-es-menuetto.krn
!!!cenid: 18xx:2514
!!!COM: Anonim
!!!COM-rismID: pe30004985
!!!CDT:
!!!CNT:
!!!OPR: Partia Es
!!!OTL: Menuetto
!!!OMV: 003
!!!PDT:
!!!AGN: Secular; Partita
!!!SMS-siglum: PL-CZ
!!!SMS-shelfmark: I-155
!!!SMS-shelfwork: 006-003 M
!!!SMS-variant:
!!!SMS-altvar:
!!!NIFC-rismSourceID: 1001012506
!!!NIFC-rismChildID: 1001012514
!!!NIFC-islandoraID: pl-cz:814
!!!URL-pdf-islandora: https://repozytorium.nifc.pl/islandora/object/pl-cz%3A814/datastream/PDF/view
!!!URL-scan: https://polish.musicsources.pl/pl/lokalizacje/galeria/rekopisy/557 @EN{Scan on Polish Music Sources Website} @PL{Skany w portalu Dziedzictwo Muzyki Polskiej w otwartym dostępie}
!!!ONB-nifc: UWAGA: Parthia 6 (006), części: 1. bez tempa, 2. Adagio, 3. Menuetto, 4. Allegro presto. Uwaga: 5 partii
!!!AIN: 2 clars 2 cor 1 fagot
!!!key:
**kern	**kern	**kern	**kern	**dynam	**kern	**dynam
*part5	*part4	*part3	*part2	*part2	*part1	*part1
*staff5	*staff4	*staff3	*staff2	*	*staff1	*
*Icor	*Icor	*Ifagot	*Iclars	*	*Iclars	*
*I"Corno Secondo	*I"Corno Primo:	*I"Fagotto	*I"Clarinetto Secondo	*	*I"Clarinetto Primo	*
*I'cor 2	*I'cor 1	*I'fg	*I'cl 2	*	*I'cl 1	*
*clefG2	*clefG2	*clefF4	*clefG2	*	*clefG2	*
*ITrd5c9	*ITrd5c9	*	*ITrd1c2	*	*ITrd1c2	*
*k[b-e-a-]	*k[b-e-a-]	*k[b-e-a-]	*k[b-e-a-]	*	*k[b-e-a-]	*
*E-:	*E-:	*E-:	*E-:	*	*E-:	*
*M3/4	*M3/4	*M3/4	*M3/4	*	*M3/4	*
*>[A,A,B,B,C,C,D,D]	*	*	*	*	*	*
=1	=1	=1	=1	=1	=1	=1
*>A	*	*	*	*	*	*
!	!	!LO:TX:a:t=Men&colon;	!	!	!	!
!	!	!LO:TX:t=P:problem=kolejność znaków BB- E- A-	!	!	!LO:TX:t=P:problem=all\right&colon; global	!
4E-/	4e-\	4E-\	4g/	.	4ee-\	.
4r	4r	4r	4ee-\	.	4gg\	.
4E-/	4e-\	4E-\	4gg\	.	4bb-\	.
=2	=2	=2	=2	=2	=2	=2
2BB-/	4.f\	4D\	4.b-\	.	4.ff\	.
.	.	4BB-/	.	.	.	.
.	8a-\	.	16ee-\LL	.	16gg\LL	.
.	.	.	16ff\JJ	.	16aa-\JJ	.
4E-/	4g\	4E-\	4ee-\	.	4gg\	.
=3	=3	=3	=3	=3	=3	=3
2.r	2.r	4A-\	4cc\	.	4aa-\	.
.	.	4B-\	8b-\L	.	8gg\L	.
.	.	.	8a-\	.	8ff\	.
.	.	4BB-/	8g\	.	8ee-\	.
.	.	.	8f\J	.	8dd\J	.
=4	=4	=4	=4	=4	=4	=4
4r	4r	4E-\	8a-/L	.	8ff\L	.
.	.	.	8g/J	.	8ee-\J	.
8.E-/L	8.e-\L	4EE-/	4g/	.	4ee-\	.
16E-/Jk	16e-\Jk	.	.	.	.	.
4E-/	4e-\	4E-\	4r	.	4r	.
=5	=5	=5	=5	=5	=5	=5
4E-/	4e-\	4E-\	4g/	.	4ee-\	.
4r	4r	4r	4ee-\	.	4gg\	.
4r	4r	4BB-/	4ee-\	.	4aa\	.
!	!	!	!	!	!LO:LB:g=original	!
=6	=6	=6	=6	=6	=6	=6
*	*2\right	*	*	*	*	*
2B-/	2f\	4BB-/	4dd\	.	8bb-\L	.
.	.	.	.	.	8ff\J	.
.	.	4D/	4b-\	.	4ff\	.
4r	4r	4BB-/	4r	.	4r	.
=7	=7	=7	=7	=7	=7	=7
!	!	!	!	!	!LO:TUP:a:problem=klamra łukowa	!
4E-/	4e-\	4E-\	4g/	.	12ee-\L	.
.	.	.	.	.	12gg\	.
.	.	.	.	.	12ff\J	.
!	!	!	!	!	!LO:TUP:a:problem=klamra łukowa	!
4r	4r	4r	4r	.	12gg\L	.
.	.	.	.	.	12ff\	.
.	.	.	.	.	12ee-\J	.
!	!	!	!	!	!LO:TUP:a:problem=klamra łukowa	!
4r	4r	4En\	4g/	.	12dd\L	.
.	.	.	.	.	12cc\	.
.	.	.	.	.	12b-\J	.
!	!LO:LB:g=original	!LO:LB:g=original	!LO:LB:g=original	!	!	!
=8	=8	=8	=8	=8	=8	=8
2.r	2.r	4F\	4f/	.	8a\L	.
.	.	.	.	.	8ff\J	.
.	.	4FF/	4a\	.	4ff\	.
.	.	4F\	4cc\	.	8aa\L	.
.	.	.	.	.	8ff\J	.
!LO:LB:g=original	!	!	!	!	!	!
=9	=9	=9	=9	=9	=9	=9
4r	4r	4BB-/	4dd\	.	4bb-\	.
4B-/	4b-\	4F\	4b-\	.	4dd\	.
!	!	!	!LO:SIC:v:s=bn	!	!	!
4f\	4aX\	4FF/	4a-\	.	4cc\	.
=10	=10	=10	=10	=10	=10	=10
.	.	.	8qqe-/	.	.	.
2B-/	2b-\	4BB-/	2d/	.	4cc\	.
.	.	4B-\	.	.	4b-\	.
!LO:TX:b:t=10	!LO:TX:b:t=10	!LO:TX:b:t=10	!LO:TX:b:t=10	!	!LO:TX:b:t=10	!
4r	4r	4BB-/	4r	.	4r	.
=11:|!|:	=11:|!|:	=11:|!|:	=11:|!|:	=11:|!|:	=11:|!|:	=11:|!|:
*>B	*	*	*	*	*	*
!	!	!	!	!LO:DY:rj	!	!
4B-/	4b-\	4B-\	4d/	p	4b-\	.
!	!	!	!	!	!	!LO:DY:t=p&colon;
4r	4r	4An\	4e-/	.	4cc\	p
4r	4r	4A-X\	4f/	.	4dd\	.
=12	=12	=12	=12	=12	=12	=12
!	!	!	!	!LO:HP:t=cre&colon;	!	!
4E-/	4g\	4G\	4g/	<	4ee-\	.
4r	4r	4F\	4a-/	.	4ff\	.
4r	4r	4E-\	4b-/	.	4gg\	.
=13	=13	=13	=13	=13	=13	=13
4r	4r	4D\	8gg\L	.	8bb-\L	.
.	.	.	8ff\J	.	8aa-\J	.
4r	4r	4BB-/	4ff\	.	4aa-\	.
4e-\	4g\	4E-\	4ee-\	.	4gg\	.
=14	=14	=14	=14	=14	=14	=14
.	16qqg/	.	.	.	.	.
2B-/	2f\	4B-\	4ee-\	.	4gg\	.
.	.	4BB-/	4dd\	.	4ff\	.
4r	4r	4r	4r	.	4r	.
=15	=15	=15	=15	=15	=15	=15
!	!	!LO:N:vis=0	!LO:N:vis=0	!	!LO:N:vis=0	!
4g\	4b-\	1.r	1.r	.	1.r	.
4f\	4a-\	.	.	.	.	.
4e-\	4g\	.	.	.	.	.
=16	=16	=16	=16	=16	=16	=16
.	16qqg/	.	.	.	.	.
2B-/	2f\	.	.	.	.	.
4r	4r	.	.	.	.	.
!LO:LB:g=original	!LO:LB:g=original	!	!	!	!	!
=17	=17	=17	=17	=17	=17	=17
!	!	!	!	!	!LO:TUP:a:problem=klamra łukowa	!
4E-/	4e-\	4E-\	4g/	.	12ee-\L	.
.	.	.	.	.	12gg\	.
.	.	.	.	.	12ff\J	.
!	!	!	!	!	!LO:TUP:a:problem=klamra łukowa	!
4r	4r	4r	4r	.	12gg\L	.
.	.	.	.	.	12ff\	.
.	.	.	.	.	12ee-\J	.
!	!	!	!	!	!LO:TUP:a:problem=klamra łukowa	!
4r	4r	4BB-/	4f/	.	12dd\L	.
.	.	.	.	.	12cc\	.
.	.	.	.	.	12b-\J	.
!	!	!LO:LB:g=original	!LO:LB:g=original	!	!LO:LB:g=original	!
=18	=18	=18	=18	=18	=18	=18
2.r	2.r	4C\	4e-/	.	4a-\	.
.	.	4D\	4ff\	.	4aa-\	.
.	.	4E-\	4ee-\	.	4gg\	.
=19	=19	=19	=19	=19	=19	=19
4r	4r	4A-\	4a-/	.	8ff\L	.
.	.	.	.	.	8gg\J	.
4e-\	4g\	4B-\	4g/	.	4ee-\	.
4B-/	4f\	4BB-/	4f/	.	4dd\	.
=20	=20	=20	=20	=20	=20	=20
*	*	*	*	*	*2\right	*
16qqB-/	16qqf/	.	.	.	.	.
!	!	!	!	!	!LO:N:vis=2	!
2G/	2e-\	4E-\	4f/	.	2.ee-\	.
.	.	4BB-/	4g/	.	.	.
!LO:TX:b:t=10	!LO:TX:b:t=10	!LO:TX:a:t=10	!	!	!	!
4r	4r	4EE-/	4r	.	.	.
!	!	!	!	!	!LO:LB:g=original	!
=21!|:	=21!|:	=21!|:	=21!|:	=21!|:	=21!|:	=21!|:
*>C	*	*	*	*	*	*
*k[b-e-a-d-]	*k[b-e-a-d-]	*k[b-e-a-d-]	*k[b-e-a-d-]	*	*k[b-e-a-d-]	*
*M3/4	*M3/4	*	*	*	*M3/4	*
*	*	*2\right	*	*	*	*
!LO:TX:i:t=Trio Tacet	!LO:TX:i:t=Trio Tacet	!LO:TX:a:t=Trio	!	!	!	!
!	!LO:TX:a:t=Trio Tacet	!LO:TX:t=P:problem=kolejność znaków BB- E- A- D-	!	!	!	!
2.ryy	2.ryy	2A-\	8c/L	.	4.ee-\	.
.	.	.	8A-/	.	.	.
.	.	.	8c/	.	.	.
.	.	.	8A-/	.	8ff\L	.
.	.	4E-\	8B-/	.	8ee-\	.
.	.	.	8G/J	.	8dd-X\J	.
=22	=22	=22	=22	=22	=22	=22
2.ryy	2.ryy	4A-\	8A-/L	.	4cc\	.
.	.	.	8E-/	.	.	.
.	.	4AA-/	8A-/	.	4cc\	.
.	.	.	8E-/	.	.	.
.	.	4A-\	8A-/	.	4cc\	.
.	.	.	8E-/J	.	.	.
=23	=23	=23	=23	=23	=23	=23
.	.	8qqc/	.	.	16qqee-/	.
2.ryy	2.ryy	4B-\	8G/L	.	4dd-\	.
.	.	.	8E-/	.	.	.
.	.	4B-\	8B-/	.	4dd-\	.
.	.	.	8G/	.	.	.
.	.	4A-\	8A-/	.	4cc\	.
.	.	.	8E-/J	.	.	.
=24	=24	=24	=24	=24	=24	=24
2.ryy	2.ryy	8G\L	2e-/	.	4cc\	.
.	.	8e-\	.	.	.	.
.	.	8B-\	.	.	4b-\	.
.	.	8G\J	.	.	.	.
.	.	4E-\	4r	.	4r	.
!	!	!	!LO:LB:g=original	!	!	!
=25	=25	=25	=25	=25	=25	=25
2.ryy	2.ryy	4A-\	8c/L	.	8a-\L	.
.	.	.	8A-/	.	8cc\	.
.	.	4r	8G/	.	8b-\	.
.	.	.	8c/	.	8a-\	.
!	!	!LO:LB:g=original	!	!	!	!
.	.	4E-\	8d-X/	.	8g\	.
.	.	.	8c/J	.	8a-\J	.
!	!	!	!	!	!LO:LB:g=original	!
=26	=26	=26	=26	=26	=26	=26
2.ryy	2.ryy	4E-\	8g\L	.	8b-\L	.
.	.	.	8a-\	.	8cc\	.
.	.	4r	8b-\	.	8dd-\	.
.	.	.	8g\	.	8b-\	.
.	.	4E-\	8a-\	.	8cc\	.
.	.	.	8b-\J	.	8dd-\J	.
=27	=27	=27	=27	=27	=27	=27
2.ryy	2.ryy	4A-\	8cc\L	.	8ee-\L	.
.	.	.	8a-\	.	8cc\	.
.	.	4r	8dd-X\	.	8ff\	.
.	.	.	8cc\	.	8ee-\	.
.	.	4D-\	8b-\	.	8dd-\	.
.	.	.	8a-\J	.	8cc\J	.
=28	=28	=28	=28	=28	=28	=28
.	.	.	8qqa-/	.	16qqcc/	.
2.ryy	2.ryy	4E-\	2g/	.	2b-\	.
.	.	4EE-/	.	.	.	.
!	!	!LO:TX:b:t=10	!	!	!LO:TX:a:t=8	!
.	.	4E-\	4r	.	4r	.
=29:|!|:	=29:|!|:	=29:|!|:	=29:|!|:	=29:|!|:	=29:|!|:	=29:|!|:
*>D	*	*	*	*	*	*
*	*	*	*tremolo	*	*	*
2.ryy	2.ryy	4E-\	8B-/L	.	4ee-\	.
.	.	.	8d-X/	.	.	.
.	.	4E-\	8B-/	.	4ee-\	.
.	.	.	8d-/	.	.	.
.	.	4E-\	8B-/	.	4gg\	.
.	.	.	8d-/J	.	.	.
=30	=30	=30	=30	=30	=30	=30
2.ryy	2.ryy	4A-\	8A-/L	.	8gg\L	.
.	.	.	8c/	.	8aa-\J	.
.	.	4AA-/	8A-/	.	2aa-\	.
.	.	.	8c/	.	.	.
.	.	4A-\	8A-/	.	.	.
.	.	.	8c/J	.	.	.
!	!	!	!	!	!LO:LB:g=original	!
=31	=31	=31	=31	=31	=31	=31
2.ryy	2.ryy	4B-\	8A-/L	.	4dd\	.
.	.	.	8B-/	.	.	.
.	.	4B-\	8A-/	.	4dd\	.
.	.	.	8B-/	.	.	.
.	.	4B-\	8A-/	.	4dd\	.
.	.	.	8B-/J	.	.	.
!	!	!	!LO:LB:g=original	!	!	!
=32	=32	=32	=32	=32	=32	=32
!	!	!	!	!	!LO:SIC:v:s=een	!
2.ryy	2.ryy	4E-\	8G/L	.	8dd-\L	.
.	.	.	8B-/	.	8ee-\J	.
.	.	4EE-/	8G/	.	4ee-\	.
.	.	.	8B-/	.	.	.
.	.	4E-\	8G/	.	4r	.
.	.	.	8B-/J	.	.	.
*	*	*	*Xtremolo	*	*	*
=33	=33	=33	=33	=33	=33	=33
2.ryy	2.ryy	4E-\	8b-\L	.	8dd-X\L	.
.	.	.	8dd-X\	.	8ff\	.
.	.	4r	8cc\	.	8ee-\	.
.	.	.	8b-\	.	8dd-\	.
.	.	4E-\	8a-\	.	8cc\	.
.	.	.	8g\J	.	8b-\J	.
!	!	!LO:LB:g=original	!	!	!	!
=34	=34	=34	=34	=34	=34	=34
2.ryy	2.ryy	4A-\	8a-/L	.	4cc\	.
.	.	.	8e-/	.	.	.
.	.	4B-\	8g/	.	4dd-\	.
.	.	.	8e-/	.	.	.
.	.	4A-\	8c/	.	4ee-\	.
.	.	.	8e-/J	.	.	.
=35	=35	=35	=35	=35	=35	=35
2.ryy	2.ryy	4D-\	4dd-\	.	4ff\	.
.	.	4r	8cc/L	.	8ee-\L	.
.	.	.	8b-/	.	8dd-\	.
.	.	4E-\	8a-/	.	8cc\	.
.	.	.	8e-/J	.	8b-\J	.
=36	=36	=36	=36	=36	=36	=36
.	.	.	8qqd-/	.	8qqb-/	.
2.ryy	2.ryy	4AA-/	2c/	.	2a-\	.
.	.	4A-\	.	.	.	.
!	!	!	!	!	!LO:TX:b:t=8	!
!	!	!	!LO:TX:a:t=M&colon; Da Capo	!	!LO:TX:b:t=M&colon; Da Capo	!
.	.	4AA-/	4r	.	4r	.
==	==	==	==	==	==	==
*-	*-	*-	*-	*-	*-	*-
!!!system-decoration: [(s1,s2,s3,s4,s5)]
!!!ENC: Marcin Jachim
!!!END: 2021-06-16
!!!EED: Leszek Kubiak
!!!EEV: 2021-06-22
!!!YEC: Copyright 2022 Narodowy Instytut Fryderyka Chopina (https://polishscores.org)
!!!YEM: License CC-BY-4.0 (https://creativecommons.org/licenses/by/4.0)
